src/shared/assets/images/icons/raid-icon.svg

<svg width="48" height="48" viewBox="0 0 48 48" fill="none" xmlns="http://www.w3.org/2000/svg">
<path d="M4.21539 12.5773L24 1.1547L43.7846 12.5773V35.4226L24 46.8453L4.21539 35.4226V12.5773Z" fill="#171E2F" stroke="#2C3B5E" stroke-width="2"/>
<g clip-path="url(#clip0_51_1231)">
<path d="M27.0841 16.9555C26.4522 17.6372 25.8663 18.3406 25.6765 19.3522C27.1164 18.0127 28.4494 16.6706 28.9019 14.6954C29.0484 14.063 29.1146 13.4301 28.9415 12.7887C28.8742 12.5392 28.7491 12.3204 28.6 12.0794C28.7027 12.0757 28.7376 12.1372 28.7778 12.1817C29.3465 12.8083 29.566 13.5805 29.6593 14.3972C29.8105 15.7177 29.6833 17.0196 29.4122 18.313C29.4065 18.3644 29.4037 18.416 29.4039 18.4677C29.701 18.1017 29.8512 17.7135 29.9773 17.3167C30.1822 16.6592 30.2872 15.9737 30.2885 15.2839C30.2906 15.0943 30.3349 15.0053 30.5372 15.0286C30.6845 15.0389 30.8323 15.0411 30.9798 15.0355C31.3166 15.0376 31.3213 15.0381 31.2754 15.3888C31.2337 15.6849 31.1862 15.9788 31.1294 16.3496C31.3911 15.9518 31.6257 15.6181 31.8342 15.2696C31.9249 15.1181 32.0245 15.0683 32.1918 15.0858L32.2092 15.0877C32.6329 15.1347 33.0559 15.1817 33.4951 15.2977C33.0942 15.7717 32.782 16.2691 32.3972 16.7871C33.7724 16.3104 34.8823 16.8199 36 17.6192C35.4959 17.6833 35.0533 17.7479 34.6686 17.9899C34.2838 18.232 33.9638 18.5593 33.5989 18.83C34.079 18.7876 34.4887 18.5546 34.9183 18.3385C35.0345 18.6298 35.0867 18.8946 34.826 19.1504C34.679 19.294 34.5773 19.4857 34.4819 19.7082L35.1925 19.3978C34.8364 21.6472 34.0863 23.5996 32.2346 25.009C32.2622 24.849 32.3508 24.7643 32.4139 24.6679C33.2303 23.4227 33.6645 22.0593 33.6171 20.5561C33.5947 19.8512 33.4232 19.1939 32.8815 18.6944C32.8508 18.6663 32.8169 18.6414 32.7595 18.5959C32.7163 18.8353 32.7111 19.0657 32.5891 19.312C32.4932 19.0445 32.3879 18.821 32.1971 18.6499C31.2071 17.7654 29.5712 18.1557 29.0963 19.4073C28.901 19.9453 28.6325 20.4529 28.2987 20.9153C28.0182 21.2929 27.6726 21.5784 27.1987 21.6531C27.0528 21.6764 27.0267 21.7844 26.9782 21.8829C26.6529 22.5445 26.1869 23.0588 25.4972 23.3342C25.4221 23.3665 25.3325 23.4576 25.259 23.3872C25.1855 23.3167 25.2746 23.223 25.3069 23.1504C25.5665 22.5683 25.7657 21.9709 25.7829 21.3167C25.6802 21.3734 25.687 21.4815 25.6562 21.5646C25.5171 21.9644 25.3093 22.3359 25.0426 22.6621C24.9651 22.7572 24.8763 22.8422 24.7783 22.9153C24.4812 23.1303 24.3952 23.1112 24.183 22.7934C24.1642 23.1758 24.2325 23.5355 24.1163 23.9354C24.3024 23.794 24.2638 23.6022 24.3545 23.4762C24.9754 23.9327 24.9514 24.4142 24.2685 25.2384C24.3623 25.3003 24.4442 25.1796 24.5568 25.2325C24.5437 25.5821 24.4228 25.9216 24.3623 26.276C24.5922 25.9666 24.7934 25.6367 24.8456 25.2537C24.8794 24.9968 25.0202 24.9349 25.2183 24.8978C25.2928 24.8835 25.3653 24.8877 25.3564 24.9936C25.273 25.9862 25.4404 26.9899 25.2266 27.9762C25.1731 28.2491 25.0783 28.5119 24.9457 28.7553C24.852 28.4088 24.7907 28.0541 24.7627 27.696C24.7439 27.4947 24.6907 27.4259 24.4973 27.5371C24.343 27.6229 24.0672 27.589 24.1715 27.9407C24.0568 27.7511 23.8728 27.9322 23.7878 27.8348C23.5955 27.6139 23.5725 27.9507 23.4161 27.9041C23.3656 27.8326 23.5068 27.6308 23.2874 27.6043C23.1482 27.5895 23.0429 27.4836 22.9068 27.4454C22.7708 27.4073 22.7942 27.5535 22.7942 27.6261C22.7838 27.9682 22.7645 28.3141 22.8125 28.6568C22.825 28.7431 22.8297 28.8305 22.8458 28.9952C22.5329 28.6006 22.3465 28.1179 22.312 27.6123C22.2573 26.8882 22.2865 26.1637 22.264 25.4407C22.2609 25.3347 22.2526 25.2288 22.2442 25.1229C22.2385 25.0477 22.1744 24.9576 22.2646 24.9057C22.3547 24.8538 22.4512 24.893 22.533 24.9507C22.655 25.0371 22.703 25.1663 22.7322 25.3088C22.8078 25.6764 22.9704 26.0021 23.2358 26.3422C23.1633 25.9656 23.0022 25.6674 23.0069 25.313L23.3468 25.4454C23.057 25.1075 22.8662 24.7966 22.7775 24.4258C22.6764 24.0053 22.8818 23.7203 23.1612 23.4364L23.3932 23.919C23.3269 23.5504 23.3132 23.174 23.3525 22.8014C23.0757 23.1266 22.9548 23.1335 22.6493 22.8369C22.2755 22.4746 22.0858 21.9979 21.896 21.5212C21.8512 21.4078 21.8183 21.2897 21.7751 21.1584C21.6974 21.5996 21.8903 22.3962 22.3198 23.4184C21.8095 23.3173 21.3929 23.0996 21.0609 22.7203C20.8372 22.4656 20.7799 22.0752 20.5682 21.8618C20.3566 21.6483 19.9864 21.6118 19.742 21.3893C19.1951 20.8914 18.8458 20.2558 18.631 19.5641C18.3803 18.7585 17.8053 18.3999 17.0671 18.2818C16.2669 18.1536 15.548 18.3512 15.0559 19.0805C15.0523 19.0863 15.0408 19.0863 15.0173 19.0948V18.7828C14.6488 19.036 14.3918 19.3337 14.2739 19.7362C13.8663 21.1324 14.0336 22.4714 14.6722 23.7617C14.8776 24.1769 15.132 24.563 15.3577 24.9645C13.6948 23.4889 12.6965 21.6743 12.5948 19.3739C12.8591 19.4333 13.0353 19.6218 13.3246 19.7092C13.1875 19.4767 13.0781 19.2855 12.9639 19.098L12.9617 19.0945C12.709 18.6801 12.7085 18.6793 12.9024 18.2087C13.0781 18.34 13.2522 18.482 13.4237 18.598C13.5952 18.714 13.7667 18.8342 13.9857 18.8755C13.6854 18.5874 13.4842 18.2219 13.2188 17.9073C12.9024 17.5328 12.4806 17.4062 12 17.3856C12.5854 17.0307 13.1391 16.6139 13.8168 16.4693C14.2338 16.3824 14.4595 16.4693 14.9527 16.768C14.6472 16.2834 14.5768 15.6547 14.0102 15.2887C14.4689 15.1753 14.8969 15.1515 15.3223 15.1123C15.4432 15.1012 15.5079 15.1965 15.5762 15.2749C15.7602 15.4868 15.8942 15.7346 16.0506 15.9725C16.0214 15.7495 15.9958 15.526 15.9609 15.304C15.9328 15.1213 15.964 15.0222 16.1819 15.0392C16.4422 15.0588 16.7036 15.0588 16.9639 15.0392C17.1719 15.0228 17.2277 15.1197 17.2574 15.304C17.3833 16.1031 17.5601 16.8931 17.7865 17.669C17.8798 17.9857 17.9877 18.3019 18.251 18.607C18.1061 17.8019 17.9539 17.0599 17.909 16.304C17.8402 15.1541 17.8251 14.0085 18.3 12.9237C18.4551 12.5565 18.7033 12.2377 19.0194 12C18.7775 12.3401 18.619 12.734 18.557 13.1488C18.4382 13.9407 18.5961 14.6997 18.8865 15.4237C19.511 16.9809 20.6094 18.1774 21.8084 19.3284C21.7646 18.7807 21.2798 17.9227 20.4457 16.8633C21.1005 17.2251 21.5775 17.7722 21.9747 18.4243C22.007 18.1382 21.8267 17.544 21.5728 17.0471C21.3554 16.6192 21.065 16.2399 20.782 15.8538C21.3252 16.2278 21.7824 16.6806 22.0951 17.2839C22.1749 16.7818 22.0175 16.3242 21.8673 15.8628C22.1933 16.2701 22.3732 16.778 22.3772 17.303C22.507 17.1308 22.52 16.9105 22.4293 16.3623C22.6879 16.6298 22.7864 16.9317 22.8286 17.2495C22.8719 17.6352 23.0293 17.9984 23.2801 18.2913C23.572 18.6356 23.5751 19.1081 23.6679 19.536C23.7013 19.6902 23.7148 19.8485 23.7456 20.0567C23.8311 19.687 23.902 19.3612 23.9818 19.0434C24.0589 18.732 24.1903 18.4333 24.4077 18.2082C24.625 17.9831 24.7236 17.7097 24.7674 17.4052C24.8132 17.0826 24.8727 16.7627 25.1224 16.4518C25.0645 16.8099 25.0603 17.1133 25.1646 17.4502C25.2814 16.9778 25.3262 16.5207 25.5186 16.1054C25.5061 16.5143 25.4456 16.92 25.4977 17.3967C25.8329 16.822 26.2025 16.3713 26.7191 16.0561C26.2302 16.6939 25.7615 17.3411 25.6765 18.1886C26.0696 17.6859 26.5179 17.2521 27.0841 16.9555Z" fill="#848E9C"/>
<path d="M23.0637 33.724C22.5482 31.857 22.0691 30.0275 21.7792 28.1446V28.1435C21.9544 28.4926 22.1374 28.8395 22.3026 29.1928C22.4627 29.539 22.7441 29.8122 23.0919 29.9587C23.2879 30.0482 23.3895 30.0154 23.4771 29.8194C23.5366 29.6864 23.5689 29.4428 23.8165 29.642C23.84 29.6517 23.8657 29.6551 23.8909 29.6518C23.9162 29.6484 23.9401 29.6385 23.9604 29.6229C24.109 29.4078 24.1465 29.5736 24.2064 29.688C24.4243 30.1033 24.4681 30.1091 24.8179 29.7913C25.1881 29.4545 25.4122 29.0143 25.6458 28.5816C25.6986 28.4709 25.76 28.3646 25.8293 28.2638C25.713 28.795 25.7125 29.348 25.4607 29.8485C25.2402 30.2871 25.1615 30.7654 25.1537 31.2553C25.1417 32.0005 24.9404 32.705 24.7111 33.4078C24.624 32.8782 24.5536 32.3432 24.4035 31.8189C24.1767 33.2219 24.159 34.6658 23.5934 36C23.6836 34.9364 23.5741 33.8909 23.3515 32.8549C23.3249 32.7304 23.3192 32.5948 23.2175 32.4576C23.1727 32.8861 23.1581 33.2903 23.0637 33.724Z" fill="#848E9C"/>
<path d="M20.1246 27.2007C19.9432 27.6261 19.6935 28.0286 19.6153 28.5583L20.3352 27.7161C20.2294 28.1642 20.1512 28.5477 20.0469 28.9227C19.9376 29.3072 19.9719 29.7191 20.1434 30.0795C20.3227 30.4799 20.5078 30.8787 20.672 31.286C20.8143 31.6393 20.9013 32.0064 20.7736 32.4513C20.6782 31.8146 20.3519 31.3755 19.9447 30.9873C19.1524 30.232 18.8594 29.2564 18.7103 28.2018C18.6378 27.6891 18.6634 27.2214 18.9761 26.7977C19.0393 26.7247 19.0725 26.6299 19.0689 26.5328C18.6415 26.7548 18.1994 26.8125 17.664 26.7447C18.2854 26.3146 18.3209 25.6684 18.4939 25.0381C18.129 25.2595 17.8261 25.5026 17.5035 25.7267C17.6411 25.4264 17.8314 25.1589 17.9539 24.8538C18.0918 24.5113 18.1888 24.1531 18.2427 23.7871C18.2578 23.6864 18.2734 23.5784 18.1123 23.625C17.8194 23.7097 17.6937 23.5148 17.517 23.2394C17.8783 23.4243 18.1629 23.3877 18.434 23.1864C18.4946 23.4427 18.5152 23.7071 18.495 23.9698C18.4738 24.2354 18.4182 24.497 18.3297 24.7479C18.5263 24.6817 18.6248 24.5143 18.8208 24.4831C18.6582 25.1075 18.593 25.7463 18.2995 26.3289C18.886 26.3501 19.2081 26.0858 19.3802 25.419C19.5402 25.9709 19.6434 26.4783 19.4646 27.0079C19.6877 26.7749 19.7842 26.4862 19.8363 26.179C19.896 25.8747 19.8851 25.5604 19.8045 25.2611C19.7174 24.9619 19.6022 24.6711 19.4876 24.3427C20.012 24.6351 20.4066 25.0005 20.4103 25.599C20.4139 26.1414 20.343 26.6864 20.1246 27.2007Z" fill="#848E9C"/>
<path d="M30.1806 25.6732C29.8805 25.5006 29.6402 25.2502 29.2755 25.0706C29.443 25.6687 29.421 26.281 30.0107 26.6531C29.7255 26.7918 29.4696 26.7426 29.2167 26.7452C28.9639 26.7479 28.7309 26.6393 28.4702 26.5821C29.1484 27.3951 28.8258 28.2585 28.6558 29.1091C28.4942 29.9174 28.1543 30.6208 27.5089 31.1552C27.1893 31.4251 26.957 31.7864 26.8422 32.1923C26.7582 31.8867 26.7874 31.6631 26.9464 31.3093C27.1153 30.9327 27.2801 30.554 27.4511 30.1785C27.649 29.7613 27.6875 29.2844 27.559 28.84C27.4573 28.4772 27.3776 28.1086 27.2733 27.6917C27.5455 27.9704 27.7459 28.2547 27.9856 28.5949L27.9964 28.6102C27.9852 28.3745 27.9339 28.1426 27.8447 27.9248C27.7175 27.607 27.571 27.2993 27.4396 26.9815C27.1258 26.2283 26.998 25.4772 27.4766 24.7357C27.6325 24.4931 27.8483 24.3321 28.1491 24.1647C27.7581 25.1398 27.4975 26.0699 28.0709 27.0127C27.8931 26.5011 28.0839 26.0328 28.2335 25.526C28.5187 26.0026 28.8972 26.2945 29.4941 26.3204C29.1891 25.7346 29.1192 25.116 28.8888 24.5387C29.0713 24.5021 29.1417 24.6907 29.3168 24.7198C29.1551 24.1614 29.1012 23.5766 29.1578 22.9974C29.3872 23.3374 29.6364 23.5249 30.0206 23.2458C29.9007 23.6271 29.8032 23.6769 29.3549 23.6165C29.4597 24.3755 29.8069 25.026 30.1806 25.6732Z" fill="#848E9C"/>
<path d="M19.1951 22.9052C19.4719 22.6081 19.5637 22.2357 19.608 21.8189C19.8321 21.9963 19.9473 22.179 19.9322 22.4449C19.8884 23.2214 20.3258 23.6441 20.9915 23.8845C21.4339 24.0467 21.9041 24.1159 22.3735 24.0879C22.2552 24.3295 22.0607 24.4587 21.9101 24.6706L22.2938 24.5148L22.3693 24.562C21.6583 24.8851 21.7099 25.4947 21.7297 26.1033C21.4748 25.6186 21.175 25.169 21.052 24.6298C20.8888 24.7071 20.9519 24.9031 20.8153 25.0005C20.5781 24.7304 20.2612 24.5604 19.9786 24.3443C19.5475 24.0154 19.3922 23.5058 19.1633 23.045C19.1513 23.0217 19.1479 22.9948 19.1537 22.9691C19.1595 22.9435 19.1742 22.9208 19.1951 22.9052Z" fill="#848E9C"/>
<path d="M25.8538 25.6133C25.8793 25.2685 25.8454 24.9672 25.3695 24.8856C25.6958 24.732 25.982 24.8268 26.262 24.7034L25.3132 24.2606L25.3485 24.2509C25.7677 24.1359 26.1294 24.0367 26.4773 23.8898C26.776 23.7643 27.0575 23.6144 27.3494 23.482C27.6043 23.366 27.695 23.1901 27.6695 22.92C27.6544 22.7611 27.6768 22.6022 27.6601 22.4433C27.634 22.1801 27.706 21.9968 27.999 21.9401C28.0636 22.2918 28.1726 22.6308 28.3868 22.9274C28.4316 22.9889 28.3957 23.0466 28.368 23.0996C28.2148 23.4052 28.0693 23.7161 27.902 24.0143C27.7607 24.2598 27.5507 24.457 27.2988 24.581C27.1294 24.6684 26.9668 24.7685 26.7916 24.8686C26.7082 24.8257 26.7379 24.696 26.6237 24.6224C26.4366 25.1732 26.1467 25.6653 25.8538 26.1743C25.8538 25.9873 25.8397 25.7993 25.8538 25.6133Z" fill="#848E9C"/>
<path d="M17.579 20.4905C17.4434 20.2815 17.2619 20.1073 17.0489 19.9815C18.0195 20.0487 19.0001 21.0074 19.1237 21.956C19.1419 22.099 19.0757 22.1017 18.9782 22.089C18.6404 22.0445 18.3725 21.8856 18.1963 21.5869C18.1035 21.4285 18.0289 21.2585 17.9387 21.0996C17.823 20.8941 17.7047 20.6896 17.579 20.4905Z" fill="#848E9C"/>
<path d="M28.5369 21.9809C28.6454 21.0376 29.5681 20.1096 30.5586 19.9815L30.5575 19.9836C30.0357 20.3528 29.7808 20.8856 29.5326 21.4163C29.3538 21.795 29.0932 22.035 28.6761 22.1017C28.5573 22.1208 28.5213 22.116 28.5369 21.9809Z" fill="#848E9C"/>
<path d="M26.7254 26.9333C26.9902 27.3363 27.1258 29.392 26.9287 29.9921L26.9277 29.9952C26.6243 29.3962 26.3886 28.8512 26.6071 28.1896C26.7353 27.8014 26.7082 27.3739 26.7254 26.9333Z" fill="#848E9C"/>
<path d="M20.7825 27.1012C20.9425 28.0614 21.2798 29.0244 20.7064 29.9921L20.7053 29.9936C20.6459 29.0175 20.5693 28.0572 20.7825 27.1012Z" fill="#848E9C"/>
<path d="M21.3319 28.6917C21.3321 28.6927 21.3323 28.6937 21.3325 28.6947C21.6198 29.0898 21.8971 29.4354 21.9789 29.8787C22.0576 30.3014 22.0055 30.7394 22.0576 31.1806C21.9492 30.9264 21.8345 30.6759 21.7406 30.4168C21.6426 30.1534 21.5598 29.8844 21.4925 29.6112C21.426 29.3313 21.3916 29.043 21.3325 28.6947C21.3321 28.6943 21.3318 28.6938 21.3314 28.6933L21.3319 28.6917Z" fill="#848E9C"/>
<path d="M25.4532 30.9232C25.705 30.2674 25.489 29.4448 26.1462 28.9349L26.1457 28.9364C26.2161 29.7058 25.7092 30.2702 25.4532 30.9232C25.4515 30.9274 25.4499 30.9317 25.4482 30.9359C25.4498 30.9317 25.4515 30.9274 25.4532 30.9232Z" fill="#848E9C"/>
</g>
<defs>
<clipPath id="clip0_51_1231">
<rect width="24" height="24" fill="white" transform="translate(12 12)"/>
</clipPath>
</defs>
</svg>

<svg xmlns="http://www.w3.org/2000/svg" width="48" height="48" viewBox="0 0 48 48" fill="none"><path fill="#171E2F" stroke="#2C3B5E" stroke-width="2" d="M4.215 12.577 24 1.155l19.785 11.422v22.846L24 46.845 4.215 35.423V12.577Z"/><g fill="#848E9C" clip-path="url(#a)"><path d="M27.084 16.956c-.632.681-1.218 1.385-1.407 2.396 1.44-1.34 2.772-2.681 3.225-4.657.146-.632.213-1.265.04-1.906-.068-.25-.193-.469-.342-.71.103-.003.138.058.178.103.569.626.788 1.399.881 2.215.152 1.32.024 2.623-.247 3.916a1.355 1.355 0 0 0-.008.155c.297-.366.447-.755.573-1.151.205-.658.31-1.343.311-2.033.003-.19.047-.279.25-.255.146.01.294.012.442.007.337.002.341.002.295.353-.041.296-.089.59-.146.96.262-.397.497-.73.705-1.08.09-.15.19-.2.358-.183l.017.002c.424.047.847.094 1.286.21-.4.474-.713.971-1.098 1.49 1.375-.478 2.485.032 3.603.831-.504.064-.947.129-1.331.37-.385.243-.705.57-1.07.841.48-.042.89-.275 1.32-.491.116.29.168.556-.093.811-.147.144-.249.336-.344.558l.71-.31c-.356 2.25-1.106 4.202-2.957 5.611.027-.16.116-.245.179-.341.816-1.245 1.25-2.609 1.203-4.112-.022-.705-.194-1.362-.735-1.862-.031-.028-.065-.053-.122-.098-.044.24-.049.47-.17.716-.097-.268-.202-.491-.393-.662-.99-.885-2.626-.494-3.1.757a6.178 6.178 0 0 1-.798 1.508c-.28.378-.626.663-1.1.738-.146.023-.172.131-.22.23-.326.662-.792 1.176-1.482 1.451-.075.032-.165.124-.238.053-.073-.07.016-.164.048-.237.26-.582.459-1.18.476-1.833-.103.056-.096.165-.127.248-.139.4-.347.77-.613 1.097a1.49 1.49 0 0 1-.265.253c-.297.215-.383.196-.595-.122-.019.383.05.742-.067 1.142.186-.141.148-.333.239-.459.62.457.596.938-.087 1.762.094.062.176-.058.289-.005-.013.35-.134.689-.195 1.043.23-.31.431-.64.484-1.022.033-.257.174-.32.372-.356.075-.014.147-.01.138.096-.083.992.084 1.996-.13 2.982a2.724 2.724 0 0 1-.28.78 5.786 5.786 0 0 1-.183-1.06c-.02-.201-.072-.27-.266-.159-.154.086-.43.052-.325.404-.115-.19-.3-.009-.384-.106-.192-.221-.215.116-.372.07-.05-.072.09-.274-.129-.3-.139-.015-.244-.121-.38-.16-.136-.038-.113.108-.113.181-.01.342-.03.688.018 1.03.013.087.018.175.034.34a2.5 2.5 0 0 1-.534-1.384c-.055-.724-.026-1.448-.048-2.171a6.383 6.383 0 0 0-.02-.318c-.006-.075-.07-.165.02-.217.09-.052.187-.013.269.045.122.086.17.215.2.358.075.367.237.693.503 1.033-.073-.376-.234-.675-.23-1.029l.34.132c-.289-.337-.48-.648-.569-1.02-.1-.42.105-.705.384-.989l.232.483a3.965 3.965 0 0 1-.04-1.118c-.277.326-.398.333-.704.036-.373-.362-.563-.84-.753-1.316-.045-.113-.078-.231-.12-.363-.079.442.114 1.238.544 2.26-.51-.1-.927-.318-1.26-.698-.223-.254-.28-.645-.492-.858-.211-.214-.582-.25-.826-.473-.547-.498-.896-1.133-1.111-1.825-.25-.805-.826-1.164-1.564-1.282-.8-.128-1.519.07-2.011.799-.004.005-.015.005-.039.014v-.312c-.368.253-.625.55-.743.953-.408 1.396-.24 2.735.398 4.026.206.415.46.801.686 1.203-1.663-1.476-2.662-3.29-2.763-5.591.264.06.44.248.73.335-.137-.232-.247-.424-.361-.611l-.002-.003c-.253-.415-.253-.416-.06-.886.176.131.35.273.522.389.171.116.343.236.562.277-.3-.288-.502-.653-.767-.968-.317-.374-.738-.5-1.219-.521.585-.355 1.14-.772 1.817-.917.417-.087.643 0 1.136.299-.306-.485-.376-1.113-.943-1.48.459-.113.887-.136 1.312-.176.121-.01.186.085.254.163.184.212.318.46.475.697-.03-.223-.055-.446-.09-.668-.028-.183.003-.282.22-.265.261.02.523.02.783 0 .208-.016.264.08.293.265a19 19 0 0 0 .53 2.365c.093.317.2.633.464.938-.145-.805-.297-1.547-.342-2.303-.069-1.15-.084-2.295.391-3.38a2.25 2.25 0 0 1 .72-.924c-.242.34-.401.734-.463 1.149-.119.792.04 1.55.33 2.275.624 1.557 1.722 2.753 2.921 3.904-.043-.547-.528-1.405-1.362-2.465.654.362 1.131.91 1.529 1.561.032-.286-.148-.88-.402-1.377-.218-.428-.508-.807-.791-1.193.543.374 1 .827 1.313 1.43.08-.502-.078-.96-.228-1.421.326.407.506.915.51 1.44.13-.172.143-.393.052-.94.259.267.357.569.4.887.043.385.2.748.451 1.041.292.345.295.817.388 1.245.033.154.047.313.078.52.085-.369.156-.695.236-1.013.077-.311.208-.61.426-.835.217-.225.316-.498.36-.803.045-.322.105-.642.354-.953-.058.358-.062.661.043.998.116-.472.161-.93.354-1.345-.013.41-.073.815-.021 1.292.335-.575.704-1.026 1.221-1.34-.489.637-.957 1.284-1.043 2.132.394-.503.842-.937 1.408-1.233Z"/><path d="M23.064 33.724c-.516-1.867-.995-3.696-1.285-5.58.175.349.358.696.524 1.049.16.346.441.62.789.766.196.09.298.056.385-.14.06-.133.092-.376.34-.177a.146.146 0 0 0 .143-.02c.149-.214.186-.048.246.066.218.415.262.421.612.103.37-.337.594-.777.828-1.21.053-.11.114-.216.183-.317-.116.531-.117 1.084-.368 1.585-.22.438-.3.916-.307 1.406-.012.746-.214 1.45-.443 2.153-.087-.53-.157-1.065-.307-1.59-.227 1.404-.245 2.848-.81 4.182.09-1.064-.02-2.11-.242-3.145-.027-.125-.033-.26-.134-.397-.045.428-.06.832-.154 1.266ZM20.125 27.2c-.182.426-.431.829-.51 1.358l.72-.842c-.106.448-.184.832-.288 1.207-.11.384-.075.796.096 1.157.18.4.365.799.529 1.206.142.353.23.72.102 1.165-.096-.636-.422-1.076-.83-1.464-.792-.755-1.085-1.73-1.234-2.785-.072-.513-.047-.98.266-1.404a.383.383 0 0 0 .093-.265c-.427.222-.87.28-1.405.212.621-.43.657-1.077.83-1.707-.365.221-.668.465-.99.689.137-.3.327-.568.45-.873.138-.343.235-.7.289-1.067.015-.1.03-.209-.13-.162-.294.085-.42-.11-.596-.386.361.185.646.149.917-.053.06.257.081.521.061.784a3.075 3.075 0 0 1-.165.778c.196-.066.295-.234.49-.265-.162.625-.227 1.263-.52 1.846.586.021.908-.243 1.08-.91.16.552.263 1.06.085 1.589.223-.233.32-.522.371-.829a2.03 2.03 0 0 0-.031-.918c-.088-.3-.203-.59-.317-.918.524.292.919.657.922 1.256.004.542-.067 1.087-.285 1.602ZM30.18 25.673c-.3-.172-.54-.423-.904-.602.167.598.145 1.21.735 1.582-.285.139-.541.09-.794.092-.253.003-.486-.106-.747-.163.678.813.356 1.677.186 2.527-.162.808-.502 1.512-1.147 2.046-.32.27-.552.631-.667 1.037-.084-.305-.055-.529.104-.883.17-.376.334-.755.505-1.13.198-.418.236-.895.108-1.339-.102-.363-.181-.731-.286-1.148.273.278.473.563.713.903l.01.015a2.068 2.068 0 0 0-.151-.685c-.127-.318-.274-.626-.405-.944-.314-.753-.442-1.504.037-2.245.155-.243.371-.404.672-.571-.39.975-.652 1.905-.078 2.848-.178-.512.013-.98.162-1.487.286.477.664.768 1.261.794-.305-.585-.375-1.204-.605-1.781.182-.037.253.152.428.18a4.59 4.59 0 0 1-.16-1.722c.23.34.48.528.864.249-.12.381-.218.43-.666.37.105.76.452 1.41.826 2.057ZM19.195 22.905c.277-.297.369-.67.413-1.086.224.177.34.36.324.626-.044.776.394 1.2 1.06 1.44.442.162.912.23 1.381.203-.118.241-.312.37-.463.583l.384-.156.075.047c-.71.323-.66.933-.64 1.541-.254-.484-.554-.934-.677-1.473-.163.077-.1.273-.237.37-.237-.27-.554-.44-.836-.656-.431-.329-.587-.838-.816-1.299a.112.112 0 0 1 .032-.14ZM25.854 25.613c.025-.345-.009-.646-.485-.727.327-.154.613-.06.893-.183l-.949-.442.036-.01c.419-.115.78-.214 1.128-.361.299-.126.58-.276.872-.408.255-.116.346-.292.32-.562-.015-.159.008-.318-.009-.477-.026-.263.046-.446.339-.503.065.352.174.69.388.987.045.062.009.12-.019.173-.153.305-.299.616-.466.914a1.42 1.42 0 0 1-.603.567c-.17.087-.332.188-.507.288-.084-.043-.054-.173-.168-.247-.187.551-.477 1.043-.77 1.552 0-.187-.014-.375 0-.56ZM17.579 20.49a1.606 1.606 0 0 0-.53-.508c.97.067 1.951 1.025 2.075 1.974.018.143-.048.146-.146.133-.338-.044-.606-.203-.782-.502-.093-.159-.167-.328-.257-.487a14.06 14.06 0 0 0-.36-.61ZM28.537 21.98c.108-.942 1.031-1.87 2.022-1.998l-.002.002c-.521.369-.776.902-1.024 1.432-.18.379-.44.619-.857.686-.119.019-.155.014-.14-.121Z"/><path d="M26.725 26.933c.265.403.4 2.459.204 3.06l-.001.002c-.304-.599-.54-1.144-.32-1.805.127-.389.1-.816.117-1.257ZM20.782 27.101c.16.96.498 1.923-.076 2.891v.002c-.06-.977-.137-1.937.076-2.893ZM21.332 28.692v.003c.288.395.565.74.647 1.184.079.422.027.86.079 1.302-.109-.255-.224-.505-.317-.764a7.356 7.356 0 0 1-.248-.806c-.067-.28-.101-.568-.16-.916l-.002-.002v-.001ZM25.453 30.923c.252-.656.036-1.478.693-1.988v.001c.07.77-.437 1.334-.693 1.987l-.005.013a.667.667 0 0 1 .005-.013Z"/></g><defs><clipPath id="a"><path fill="#fff" d="M12 12h24v24H12z"/></clipPath></defs></svg>
